X:1
T:Title
%%score [ ( 1 2 ) ( 3 4 ) ] { ( 5 6 ) | ( 7 8 ) }
L:1/8
Q:1/4=120
M:4/4
K:C
V:1 treble nm="Midi_74"
V:2 treble 
V:3 bass nm="Midi_74"
V:4 bass 
V:5 treble nm="Org." snm="Org."
V:6 treble 
V:7 bass 
V:8 bass 
V:1
 c8 | d4 f4 | e8"^Double counterpoint. Minor""^bbb" || d8 | c4 f4 | e4 d4 | c8 || c8 | B4 A4 | %9
 G8 || F8 | E4 A4 |"^William Henry Havergal\n(1793-1870)" G4 B4 | c8 |] %14
[K:Eb]"^As suggested by Havergal, a version in C minor." c8 | d4 f4 | e8 || d8 | c4 f4 | e4 d4 | %20
 c8 || c8 | B4 A4 | G8 || F8 | E4 A4 | G4 =B4 | c8 |] %28
V:2
 G8 | G4 A4 | E8 || F8 | G4 F4 | G4 F4 | E8 || E8 | D4 C4 | C8 || B,8 | C4 C4 | (C2 G2) F4 | E8 |] %14
[K:Eb] G8 | G4 A4 | E8 || F8 | G4 F4 | G4 F4 | E8 || E8 | D4 C4 | C8 || =B,8 | C4 C4 | (C2 G2) F4 | %27
 E8 |] %28
V:3
 E8 | D4 C4 | B,8 || A,8 | C4 C4 | C4 B,4 | C8 || G,8 | F,4 F,4 | G,8 || G,8 | G,4 (F,2 C2) | %12
 C4 D4 | G,8 |][K:Eb] E8 | D4 C4 | B,8 || A,8 | C4 C4 | C4 =B,4 | C8 || G,8 | F,4 F,4 | G,8 || %24
 G,8 | G,4 (F,2 C2) | C4 D4 | G,8 |] %28
V:4
 C8 | B,4 A,4 | G,8 || F,8 | E,4 A,4 | G,4 G,4 | C8 || C,8 | D,4 F,4 | E,8 || D,8 | C,4 F,4 | %12
 E,4 D,4 | C,8 |][K:Eb] C8 | B,4 A,4 | G,8 || F,8 | E,4 A,4 | G,4 G,4 | C8 || C,8 | D,4 F,4 | %23
 E,8 || D,8 | C,4 F,4 | E,4 D,4 | C,8 |] %28
V:5
 c8 | d4 f4 | e8 || d8 | c4 f4 | e4 d4 | c8 || c8 | B4 A4 | G8 || F8 | E4 A4 | G4 B4 | c8 |] %14
[K:Eb] [Ec]8 | d4 f4 | e8 || d8 | c4 f4 | e4 d4 | c8 || c8 | B4 A4 | G8 || F8 | E4 A4 | G4 =B4 | %27
 c8 |] %28
V:6
 [EG]8 | G4 [Ac]4 | [EB]8 || [FA]8 | G4 [Fc]4 | [Gc]4 [FB]4 | E8 || E8 | [DF]4 [CF]4 | C8 || B,8 | %11
 C4 [CF]4 | C4 F4 | E8 |][K:Eb] G8 | G4 [Ac]4 | [EB]8 || [FA]8 | G4 [Fc]4 | [Gc]4 [F=B]4 | E8 || %21
 E8 | [DF]4 [CF]4 | C8 || =B,8 | C4 [CF]4 | C4 F4 | E8 |] %28
V:7
 x8 | x8 | x8 || x8 | x8 | x8 | x8 || x8 | x8 | x8 || x8 | x4 x4 | x8 | x8 |][K:Eb] C8 | B,4 A,4 | %16
 G,8 || F,8 | E,4 A,4 | G,4 G,4 | C8 || C,8 | D,4 F,4 | E,8 || D,8 | C,4 F,4 | E,4 D,4 | C,8 |] %28
V:8
 C8 | B,4 A,4 | G,8 || F,8 | E,4 A,4 | G,4 G,4 | C8 || C,8 | D,4 F,4 | E,8 || D,8 | C,4 F,4 | %12
 E,4 D,4 | C,8 |][K:Eb] x8 | x8 | x8 || x8 | x8 | x8 | x8 || x8 | x8 | x8 || x8 | x8 | x8 | x8 |] %28

